images/partners/global-business-for-ukroine-104-39.svg

<svg width="105" height="39" viewBox="0 0 105 39" fill="none" xmlns="http://www.w3.org/2000/svg">
<path d="M76.9025 20.6342H73.1106V25.5167H66.0744V20.6342H52.5859V15.9297L64.0347 0H71.5044L61.1143 14.9075H66.2934V10.5726H73.1106V14.9075H76.9025V20.6342Z" fill="#161616"/>
<path d="M78.7812 14.1455V0H86V13.9265C86 18.2979 87.8252 20.0501 90.846 20.0501C93.8667 20.0501 95.66 18.2979 95.66 13.9265V0H102.774V14.1455C102.774 21.7612 98.3249 26.0095 90.7776 26.0095C83.2302 26.0095 78.7858 21.743 78.7858 14.1455" fill="#161616"/>
<path d="M24.8687 9.19848H17.2073C16.4088 7.85237 14.9532 7.09034 12.9956 7.09034C9.39991 7.09034 7.21877 9.59546 7.21877 13.5197C7.21877 17.9139 9.47292 20.273 13.6846 20.273C14.8121 20.3187 15.9267 20.0201 16.8804 19.4169C17.834 18.8138 18.5815 17.9346 19.0234 16.8964H11.8685V11.7766H25.1607V18.676C23.6367 22.4131 19.6851 26.5518 13.0002 26.5518C5.15626 26.5518 0 21.1811 0 13.5197C0 5.85831 5.1152 0.519531 12.9591 0.519531C19.4204 0.519531 23.8511 3.85969 24.8687 9.18935" fill="#161616"/>
<path d="M40.9958 26.3703H28.3242V0.771484H40.5943C45.7871 0.771484 48.9812 3.16709 48.9812 7.4153C48.9812 10.4999 47.156 12.5351 44.66 13.2241C46.0664 13.5253 47.3245 14.3056 48.2192 15.4318C49.114 16.5579 49.5898 17.9598 49.5653 19.3979C49.5653 23.7191 46.4761 26.3703 40.9958 26.3703ZM39.0337 6.43425H35.438V10.938H39.0337C40.7768 10.938 41.7214 10.2125 41.7214 8.72034C41.7214 7.22822 40.7768 6.43881 39.0337 6.43881M39.5402 15.9893H35.4335V20.6345H39.5722C41.3518 20.6345 42.2598 19.909 42.2598 18.3849C42.2598 16.8608 41.2788 15.9893 39.522 15.9893" fill="#161616"/>
<path d="M56.6532 28.3223H2.99609V31.3704H56.6532V28.3223Z" fill="#161616"/>
<mask id="mask0_2395_2060" style="mask-type:luminance" maskUnits="userSpaceOnUse" x="2" y="28" width="55" height="4">
<path d="M56.5751 28.332H2.91797V31.3802H56.5751V28.332Z" fill="white"/>
</mask>
<g mask="url(#mask0_2395_2060)">
<path d="M56.5685 28.332H2.92969V31.3802H56.5685V28.332Z" fill="#161616"/>
</g>
<path d="M104.162 28.3223H60.8672V31.3704H104.162V28.3223Z" fill="#161616"/>
<mask id="mask1_2395_2060" style="mask-type:luminance" maskUnits="userSpaceOnUse" x="60" y="28" width="45" height="4">
<path d="M104.228 28.332H60.9336V31.3802H104.228V28.332Z" fill="white"/>
</mask>
<g mask="url(#mask1_2395_2060)">
<path d="M104.218 28.332H60.9375V31.3802H104.218V28.332Z" fill="#161616"/>
</g>
<path d="M7.00484 35.9338H6.04659C5.95184 35.7619 5.81016 35.6204 5.63808 35.5259C5.46601 35.4313 5.27061 35.3877 5.07466 35.3999C4.89839 35.3949 4.7231 35.4278 4.56063 35.4964C4.39816 35.5649 4.2523 35.6675 4.13291 35.7973C4.01352 35.9271 3.92337 36.081 3.86857 36.2486C3.81377 36.4162 3.79559 36.5936 3.81525 36.7689C3.79815 36.9467 3.81935 37.126 3.8774 37.295C3.93546 37.4639 4.02904 37.6184 4.15183 37.7481C4.27462 37.8778 4.42378 37.9797 4.58926 38.0469C4.75474 38.1141 4.9327 38.1451 5.11116 38.1378C5.39029 38.1534 5.6652 38.0643 5.88209 37.8879C6.09899 37.7115 6.24226 37.4605 6.28387 37.1841H4.86019V36.5498H7.10522V37.2708C6.988 37.7744 6.68902 38.217 6.26558 38.5138C5.84215 38.8106 5.32407 38.9406 4.81068 38.879C4.29729 38.8174 3.82471 38.5684 3.48355 38.1799C3.14239 37.7913 2.95665 37.2905 2.96196 36.7734C2.95312 36.4934 3.00169 36.2145 3.10468 35.9539C3.20766 35.6933 3.36289 35.4566 3.56079 35.2583C3.7587 35.0599 3.99511 34.9042 4.25546 34.8006C4.51581 34.6971 4.79459 34.6479 5.07466 34.6562C5.4948 34.6295 5.91195 34.7427 6.26109 34.9779C6.61023 35.2131 6.87173 35.5573 7.00484 35.9566" fill="#161616"/>
<path d="M8.86564 34.6812V38.1628H10.23V38.8199H8.03516V34.6812H8.86564Z" fill="#161616"/>
<path d="M13.0405 38.8657C12.6206 38.8666 12.2099 38.7429 11.8604 38.5103C11.5109 38.2777 11.2382 37.9467 11.0769 37.559C10.9156 37.1714 10.8729 36.7446 10.9543 36.3327C11.0356 35.9209 11.2374 35.5424 11.5339 35.2452C11.8305 34.948 12.2085 34.7454 12.6203 34.6632C13.032 34.5809 13.4588 34.6227 13.8468 34.7831C14.2348 34.9436 14.5664 35.2156 14.7998 35.5646C15.0332 35.9136 15.1577 36.324 15.1577 36.7439C15.1639 37.0238 15.1134 37.3022 15.0093 37.5621C14.9051 37.822 14.7495 38.0582 14.5517 38.2564C14.3539 38.4547 14.1181 38.6108 13.8583 38.7155C13.5986 38.8202 13.3204 38.8713 13.0405 38.8657ZM13.0405 38.1265C13.3146 38.1467 13.5884 38.0838 13.8264 37.9462C14.0643 37.8085 14.2552 37.6024 14.3744 37.3547C14.4936 37.1071 14.5354 36.8292 14.4945 36.5574C14.4536 36.2856 14.3318 36.0324 14.1449 35.8308C13.9581 35.6292 13.7149 35.4885 13.447 35.427C13.1791 35.3655 12.8989 35.3861 12.6428 35.4861C12.3868 35.5861 12.1668 35.7609 12.0115 35.9877C11.8561 36.2144 11.7727 36.4827 11.7719 36.7576C11.7552 36.933 11.7757 37.11 11.8321 37.2769C11.8886 37.4439 11.9797 37.597 12.0995 37.7263C12.2192 37.8555 12.365 37.958 12.5272 38.027C12.6893 38.096 12.8643 38.1299 13.0405 38.1265Z" fill="#161616"/>
<path d="M17.9013 38.8199H16.1172V34.6812H17.8283C18.6953 34.6812 19.1973 35.1375 19.1973 35.7489C19.2027 35.9635 19.1359 36.1736 19.0077 36.3457C18.8794 36.5178 18.6971 36.6419 18.49 36.698C18.7201 36.745 18.9266 36.8711 19.0733 37.0546C19.22 37.238 19.2978 37.4671 19.2931 37.7019C19.2931 38.359 18.7866 38.8199 17.9242 38.8199M17.7279 35.3519H16.9477V36.3877H17.7051C18.0976 36.3877 18.3211 36.2098 18.3211 35.8721C18.3211 35.5344 18.0976 35.3519 17.7051 35.3519M17.7645 37.0311H16.9477V38.1445H17.7827C18.1843 38.1445 18.4215 37.9483 18.4215 37.597C18.4215 37.2456 18.166 37.0311 17.7645 37.0311Z" fill="#161616"/>
<path d="M22.9092 38.0262H21.2391L20.9653 38.8156H20.0938L21.5813 34.6724H22.5487L24.0362 38.8156H23.1601L22.9092 38.0262ZM22.0832 35.6306L21.4855 37.3646H22.6856L22.0832 35.6306Z" fill="#161616"/>
<path d="M25.7758 34.6812V38.1628H27.1401V38.8199H24.9453V34.6812H25.7758Z" fill="#161616"/>
<path d="M31.5608 38.8199H29.7812V34.6812H31.4878C32.3548 34.6812 32.8568 35.1375 32.8568 35.7489C32.8614 35.9633 32.7943 36.1731 32.6662 36.345C32.5381 36.5169 32.3562 36.6412 32.1495 36.698C32.3792 36.7451 32.5851 36.8714 32.7311 37.0549C32.8771 37.2385 32.9539 37.4675 32.948 37.7019C32.948 38.359 32.4461 38.8199 31.5791 38.8199M31.3829 35.3519H30.6254V36.3877H31.3829C31.7753 36.3877 32.0035 36.2098 32.0035 35.8721C32.0035 35.5344 31.7753 35.3519 31.3829 35.3519ZM31.4422 37.0311H30.6254V38.1445H31.4605C31.8666 38.1445 32.1039 37.9483 32.1039 37.597C32.1039 37.2456 31.8483 37.0311 31.4422 37.0311Z" fill="#161616"/>
<path d="M33.9542 34.6812H34.771V37.241C34.771 37.4637 34.8595 37.6773 35.0169 37.8347C35.1744 37.9922 35.3879 38.0806 35.6106 38.0806C35.8333 38.0806 36.0469 37.9922 36.2043 37.8347C36.3618 37.6773 36.4502 37.4637 36.4502 37.241V34.6812H37.2898V37.2365C37.2997 37.4583 37.2622 37.6798 37.1797 37.886C37.0971 38.0922 36.9716 38.2784 36.8113 38.4321C36.6511 38.5859 36.4598 38.7037 36.2504 38.7776C36.041 38.8516 35.8182 38.88 35.5969 38.8609C35.3776 38.879 35.1569 38.8497 34.9498 38.7749C34.7428 38.7002 34.5543 38.5817 34.3972 38.4276C34.24 38.2734 34.1179 38.0873 34.0391 37.8818C33.9603 37.6762 33.9267 37.4561 33.9405 37.2365L33.9542 34.6812Z" fill="#161616"/>
<path d="M39.8776 38.8641C39.0152 38.8641 38.3535 38.4078 38.3398 37.6321H39.2525C39.2539 37.7109 39.2717 37.7886 39.3049 37.8601C39.3381 37.9316 39.3859 37.9955 39.4452 38.0474C39.5044 38.0994 39.574 38.1384 39.6492 38.162C39.7245 38.1855 39.8038 38.1931 39.8822 38.1842C40.2746 38.1842 40.5027 37.9743 40.5027 37.6777C40.5027 36.7651 38.3672 37.3218 38.3763 35.8205C38.3763 35.0767 38.9787 34.625 39.832 34.625C40.6853 34.625 41.2648 35.0585 41.315 35.8068H40.4024C40.3885 35.6631 40.3183 35.5306 40.2072 35.4383C40.0961 35.346 39.953 35.3013 39.8092 35.314C39.4852 35.314 39.2388 35.46 39.2388 35.7977C39.2388 36.6282 41.3652 36.1673 41.3652 37.6229C41.3652 38.2754 40.8404 38.8595 39.9004 38.8595" fill="#161616"/>
<path d="M43.2445 34.6812H42.4141V38.8199H43.2445V34.6812Z" fill="#161616"/>
<path d="M47.9589 34.6748V38.8226H47.1284L45.2484 35.9844V38.8226H44.418V34.6748H45.2484L47.1284 37.5267V34.6748H47.9589Z" fill="#161616"/>
<path d="M51.4985 35.3521H49.9288V36.3879H51.3205V37.0496H49.9288V38.1447H51.4985V38.82H49.0938V34.6768H51.4985V35.3521Z" fill="#161616"/>
<path d="M54.0768 38.8641C53.2144 38.8641 52.5482 38.4078 52.5391 37.6321H53.4517C53.4531 37.7109 53.4709 37.7886 53.5041 37.8601C53.5373 37.9316 53.5851 37.9955 53.6444 38.0474C53.7037 38.0994 53.7732 38.1384 53.8484 38.162C53.9237 38.1855 54.003 38.1931 54.0814 38.1842C54.4692 38.1842 54.702 37.9743 54.702 37.6777C54.702 36.7651 52.5664 37.3218 52.571 35.8205C52.571 35.0767 53.1779 34.625 54.0312 34.625C54.8845 34.625 55.4594 35.0585 55.5142 35.8068H54.6016C54.5877 35.6631 54.5176 35.5306 54.4064 35.4383C54.2953 35.346 54.1523 35.3013 54.0084 35.314C53.6844 35.314 53.438 35.46 53.438 35.7977C53.438 36.6282 55.5644 36.1673 55.5644 37.6229C55.5644 38.2754 55.0396 38.8595 54.0996 38.8595" fill="#161616"/>
<path d="M57.9941 38.8641C57.1363 38.8641 56.4701 38.4078 56.4609 37.6321H57.3507C57.3521 37.7109 57.37 37.7886 57.4032 37.8601C57.4364 37.9316 57.4841 37.9955 57.5434 38.0474C57.6027 38.0994 57.6722 38.1384 57.7475 38.162C57.8227 38.1855 57.9021 38.1931 57.9804 38.1842C58.3683 38.1842 58.601 37.9743 58.601 37.6777C58.601 36.7651 56.4655 37.3218 56.4701 35.8205C56.4701 35.0767 57.077 34.625 57.9302 34.625C58.7835 34.625 59.3585 35.0585 59.4132 35.8068H58.5006C58.4867 35.6631 58.4166 35.5306 58.3055 35.4383C58.1944 35.346 58.0513 35.3013 57.9074 35.314C57.5789 35.314 57.337 35.46 57.337 35.7977C57.337 36.6282 59.4634 36.1673 59.4634 37.6229C59.4634 38.2754 58.9387 38.8595 57.9941 38.8595" fill="#161616"/>
<path d="M62.3555 34.6812H64.9153V35.3519H63.186V36.4106H64.5092V37.0722H63.186V38.8199H62.3555V34.6812Z" fill="#161616"/>
<path d="M67.7905 38.8642C67.3706 38.8652 66.9599 38.7415 66.6104 38.5089C66.2609 38.2763 65.9882 37.9452 65.8269 37.5576C65.6656 37.17 65.6229 36.7432 65.7043 36.3313C65.7856 35.9194 65.9874 35.5409 66.2839 35.2437C66.5805 34.9465 66.9585 34.744 67.3703 34.6617C67.782 34.5795 68.2088 34.6212 68.5968 34.7817C68.9848 34.9421 69.3165 35.2141 69.5498 35.5631C69.7832 35.9122 69.9077 36.3226 69.9077 36.7424C69.9133 37.0222 69.8624 37.3002 69.758 37.5599C69.6536 37.8195 69.4979 38.0555 69.3003 38.2536C69.1026 38.4516 68.867 38.6078 68.6076 38.7128C68.3482 38.8177 68.0702 38.8692 67.7905 38.8642ZM67.7905 38.125C68.0646 38.1452 68.3384 38.0824 68.5764 37.9447C68.8143 37.8071 69.0053 37.601 69.1244 37.3533C69.2436 37.1056 69.2854 36.8278 69.2445 36.556C69.2036 36.2841 69.0818 36.031 68.8949 35.8293C68.7081 35.6277 68.4649 35.487 68.197 35.4256C67.9291 35.3641 67.6489 35.3847 67.3928 35.4847C67.1368 35.5847 66.9168 35.7594 66.7615 35.9862C66.6061 36.213 66.5227 36.4812 66.5219 36.7561C66.5052 36.9315 66.5257 37.1085 66.5821 37.2755C66.6386 37.4424 66.7297 37.5955 66.8495 37.7248C66.9693 37.8541 67.115 37.9565 67.2772 38.0255C67.4393 38.0945 67.6143 38.1284 67.7905 38.125Z" fill="#161616"/>
<path d="M72.4206 34.6812C73.4153 34.6812 73.9173 35.2561 73.9173 35.9497C73.9224 36.2269 73.8309 36.4973 73.6586 36.7146C73.4863 36.9319 73.2438 37.0825 72.9727 37.1407L73.9629 38.8199H73.0001L72.0875 37.2091H71.7133V38.8199H70.8828V34.6812H72.4206ZM72.3886 35.3702H71.7133V36.584H72.4069C72.8632 36.584 73.0777 36.3421 73.0777 35.9679C73.0777 35.5938 72.8723 35.3702 72.4069 35.3702" fill="#161616"/>
<path d="M76.7455 34.6812H77.576V37.241C77.576 37.4637 77.6645 37.6773 77.8219 37.8347C77.9794 37.9922 78.1929 38.0806 78.4156 38.0806C78.6383 38.0806 78.8518 37.9922 79.0093 37.8347C79.1668 37.6773 79.2552 37.4637 79.2552 37.241V34.6812H80.0903V37.2365C80.1002 37.4583 80.0626 37.6798 79.9801 37.886C79.8976 38.0922 79.772 38.2784 79.6117 38.4321C79.4515 38.5859 79.2603 38.7037 79.0508 38.7776C78.8414 38.8516 78.6186 38.88 78.3974 38.8609C78.1782 38.8791 77.9577 38.8498 77.7508 38.775C77.544 38.7002 77.3558 38.5816 77.199 38.4274C77.0422 38.2732 76.9205 38.087 76.8422 37.8815C76.764 37.6759 76.731 37.4559 76.7455 37.2365V34.6812Z" fill="#161616"/>
<path d="M82.0727 36.9764V38.8199H81.2422V34.6812H82.0727V36.5383L83.583 34.6812H84.5823L82.8758 36.7345L84.6325 38.8199H83.583L82.0727 36.9764Z" fill="#161616"/>
<path d="M87.1374 34.6812C88.1367 34.6812 88.6341 35.2561 88.6341 35.9497C88.6401 36.2272 88.549 36.498 88.3765 36.7155C88.204 36.9329 87.9611 37.0833 87.6895 37.1407L88.6797 38.8199H87.7214L86.8088 37.2091H86.4164V38.8199H85.5859V34.6812H87.1374ZM87.11 35.3702H86.4164V36.584H87.11C87.5663 36.584 87.7808 36.3421 87.7808 35.9679C87.7808 35.5938 87.5709 35.3702 87.11 35.3702Z" fill="#161616"/>
<path d="M92.2464 38.0262H90.5946L90.3208 38.8156H89.4492L90.9413 34.6724H91.9042L93.3963 38.8156H92.5156L92.2464 38.0262ZM91.4205 35.6306L90.8227 37.3646H92.0182L91.4205 35.6306Z" fill="#161616"/>
<path d="M95.1352 34.6812H94.3047V38.8199H95.1352V34.6812Z" fill="#161616"/>
<path d="M99.8456 34.6748V38.8226H99.0151L97.1352 35.9844V38.8226H96.3047V34.6748H97.1352L99.0151 37.5267V34.6748H99.8456Z" fill="#161616"/>
<path d="M103.479 35.3531H101.905V36.3889H103.301V37.0505H101.905V38.1457H103.479V38.821H101.074V34.6777H103.479V35.3531Z" fill="#161616"/>
</svg>

<svg width="105" height="39" fill="none" xmlns="http://www.w3.org/2000/svg"><path d="M76.903 20.634H73.11v4.883h-7.037v-4.883H52.586V15.93L64.035 0h7.47l-10.39 14.908h5.178v-4.335h6.818v4.335h3.791v5.726zm1.878-6.488V0H86v13.927c0 4.37 1.825 6.123 4.846 6.123 3.02 0 4.814-1.752 4.814-6.123V0h7.114v14.146c0 7.615-4.45 11.863-11.996 11.863-7.548 0-11.992-4.266-11.992-11.864M24.869 9.198h-7.662c-.798-1.346-2.254-2.108-4.211-2.108-3.596 0-5.777 2.505-5.777 6.43 0 4.394 2.254 6.753 6.466 6.753a5.557 5.557 0 005.338-3.377h-7.155v-5.12h13.293v6.9c-1.524 3.737-5.476 7.876-12.16 7.876C5.155 26.552 0 21.182 0 13.52s5.115-13 12.96-13c6.46 0 10.891 3.34 11.909 8.67m16.127 17.18H28.324V.771h12.27c5.193 0 8.387 2.396 8.387 6.644 0 3.085-1.825 5.12-4.321 5.81a6.205 6.205 0 014.905 6.173c0 4.321-3.089 6.972-8.57 6.972zM39.034 6.434h-3.596v4.504h3.596c1.743 0 2.687-.726 2.687-2.218s-.944-2.281-2.687-2.281m.506 9.55h-4.106v4.645h4.138c1.78 0 2.688-.725 2.688-2.25 0-1.523-.981-2.395-2.738-2.395m17.131 12.333H2.996v3.048h53.657v-3.048z" fill="#161616"/><mask id="mask0_2395_2060" style="mask-type:luminance" maskUnits="userSpaceOnUse" x="2" y="28" width="55" height="4"><path d="M56.575 28.332H2.918v3.048h53.657v-3.048z" fill="#fff"/></mask><g mask="url(#mask0_2395_2060)"><path d="M56.569 28.332H2.928v3.048h53.64v-3.048z" fill="#161616"/></g><path d="M104.162 28.322H60.867v3.048h43.295v-3.048z" fill="#161616"/><mask id="mask1_2395_2060" style="mask-type:luminance" maskUnits="userSpaceOnUse" x="60" y="28" width="45" height="4"><path d="M104.228 28.332H60.934v3.048h43.294v-3.048z" fill="#fff"/></mask><g mask="url(#mask1_2395_2060)"><path d="M104.218 28.332h-43.28v3.048h43.28v-3.048z" fill="#161616"/></g><path d="M7.005 35.934h-.958a1.036 1.036 0 00-.972-.534 1.232 1.232 0 00-1.26 1.369 1.25 1.25 0 001.296 1.369 1.123 1.123 0 001.173-.954H4.86v-.634h2.245v.72a2.099 2.099 0 01-4.143-.497 2.053 2.053 0 012.113-2.117 1.907 1.907 0 011.93 1.3m1.861-1.275v3.482h1.364v.657H8.035v-4.14h.83zm4.174 4.185a2.122 2.122 0 112.118-2.122 2.077 2.077 0 01-2.117 2.122zm0-.74a1.37 1.37 0 10-1.268-1.368 1.252 1.252 0 001.268 1.368zm4.861.694h-1.784v-4.14h1.711c.867 0 1.37.457 1.37 1.068a.959.959 0 01-.708.949 1.004 1.004 0 01.803 1.004c0 .657-.506 1.118-1.369 1.118m-.196-3.468h-.78v1.036h.757c.393 0 .616-.178.616-.516s-.223-.52-.616-.52m.06 1.68h-.817v1.113h.835c.401 0 .639-.197.639-.548 0-.351-.256-.566-.657-.566zm5.145.995h-1.67l-.275.79h-.871l1.487-4.144h.968l1.487 4.144h-.876l-.25-.79zm-.827-2.395l-.598 1.734h1.2l-.602-1.734zm3.693-.95v3.482h1.364v.657h-2.195v-4.14h.83zm5.784 4.139h-1.779v-4.14h1.707c.867 0 1.369.457 1.369 1.068a.963.963 0 01-.707.949 1 1 0 01.798 1.004c0 .657-.502 1.118-1.369 1.118m-.196-3.468h-.758v1.036h.758c.392 0 .62-.178.62-.516s-.228-.52-.62-.52zm.06 1.68h-.818v1.113h.835c.407 0 .644-.197.644-.548 0-.351-.256-.566-.662-.566zm2.511-2.35h.817v2.56a.84.84 0 001.68 0v-2.56h.839v2.556a1.561 1.561 0 01-1.693 1.624 1.534 1.534 0 01-1.657-1.624l.014-2.556zm5.924 4.183c-.863 0-1.525-.456-1.538-1.232h.912a.565.565 0 00.63.552c.393 0 .62-.21.62-.506 0-.913-2.135-.356-2.126-1.857 0-.744.603-1.196 1.456-1.196s1.433.434 1.483 1.182h-.913a.548.548 0 00-.593-.493c-.324 0-.57.146-.57.484 0 .83 2.126.37 2.126 1.825 0 .652-.525 1.236-1.465 1.236m3.345-4.178h-.83v4.139h.83v-4.14zm4.714-.006v4.148h-.83l-1.88-2.839v2.839h-.831v-4.148h.83l1.88 2.852v-2.852h.83zm3.539.677h-1.57v1.036h1.393v.662h-1.392v1.095h1.57v.675h-2.405v-4.143h2.404v.675zm2.579 3.512c-.863 0-1.529-.456-1.538-1.232h.913a.565.565 0 00.63.552c.387 0 .62-.21.62-.506 0-.913-2.136-.356-2.131-1.857 0-.744.607-1.196 1.46-1.196.854 0 1.428.434 1.483 1.182h-.912a.547.547 0 00-.594-.493c-.324 0-.57.146-.57.484 0 .83 2.126.37 2.126 1.825 0 .652-.524 1.236-1.464 1.236m3.894.005c-.858 0-1.524-.456-1.533-1.232h.89a.565.565 0 00.63.552c.387 0 .62-.21.62-.506 0-.913-2.136-.356-2.13-1.857 0-.744.606-1.196 1.46-1.196.852 0 1.428.434 1.482 1.182h-.912a.548.548 0 00-.594-.493c-.328 0-.57.146-.57.484 0 .83 2.126.37 2.126 1.825 0 .652-.524 1.236-1.469 1.236m4.361-4.178h2.56v.67h-1.729v1.06h1.323v.661h-1.323v1.748h-.83v-4.14zm5.435 4.183a2.12 2.12 0 112.118-2.122 2.08 2.08 0 01-2.118 2.122zm0-.739a1.368 1.368 0 10-1.268-1.369 1.252 1.252 0 001.268 1.369zm4.63-3.444c.995 0 1.497.575 1.497 1.269a1.196 1.196 0 01-.944 1.19l.99 1.68H73l-.912-1.61h-.375v1.61h-.83v-4.14h1.538zm-.031.69h-.676v1.213h.694c.456 0 .67-.242.67-.616s-.205-.598-.67-.598m4.339-.689h.83v2.56a.84.84 0 001.68 0v-2.56h.834v2.556a1.561 1.561 0 01-1.693 1.624 1.53 1.53 0 01-1.651-1.624V34.68zm5.327 2.295v1.844h-.83v-4.14h.83v1.857l1.51-1.857h1l-1.707 2.053 1.756 2.086h-1.049l-1.51-1.844zm5.064-2.295c1 0 1.497.575 1.497 1.269a1.19 1.19 0 01-.945 1.19l.99 1.68h-.958l-.912-1.61h-.393v1.61h-.83v-4.14h1.551zm-.027.69h-.694v1.213h.694c.456 0 .67-.242.67-.616s-.21-.598-.67-.598zm5.136 2.655h-1.651l-.274.79h-.872l1.492-4.144h.963l1.492 4.144h-.88l-.27-.79zm-.825-2.395l-.598 1.734h1.195l-.597-1.734zm3.714-.95h-.83v4.139h.83v-4.14zm4.711-.006v4.148h-.83l-1.88-2.839v2.839h-.831v-4.148h.83l1.88 2.852v-2.852h.83zm3.633.678h-1.574v1.036h1.396v.661h-1.396v1.096h1.574v.675h-2.405v-4.143h2.405v.675z" fill="#161616"/></svg>
